; generated by PrusaSlicer 2.9.0 on 2025-03-11 at 11:07:36 UTC

;
; 

; external perimeters extrusion width = 0.45mm
; perimeters extrusion width = 0.45mm
; infill extrusion width = 0.45mm
; solid infill extrusion width = 0.45mm
; top infill extrusion width = 0.40mm
; first layer extrusion width = 0.42mm

M73 P0 R105
M73 Q0 S105
M201 X1000 Y1000 Z200 E5000 ; sets maximum accelerations, mm/sec^2
M203 X200 Y200 Z12 E120 ; sets maximum feedrates, mm / sec
M204 S1250 T1250 ; sets acceleration (S) and retract acceleration (R), mm/sec^2
M205 X8.00 Y8.00 Z0.40 E4.50 ; sets the jerk limits, mm/sec
M205 S0 T0 ; sets the minimum extruding and travel feed rate, mm/sec

; printing object cilindre+-subdivisions.stl id:0 copy 0
; stop printing object cilindre+-subdivisions.stl id:0 copy 0

;TYPE:Custom
M862.3 P "MK3S" ; printer model check
M862.1 P0.4 ; nozzle diameter check
M115 U3.14.1 ; tell printer latest fw version
G90 ; use absolute coordinates
M83 ; extruder relative mode
M104 S255 ; set extruder temp
M140 S100 ; set bed temp
M190 S100 ; wait for bed temp
M109 S255 ; wait for extruder temp
G28 W ; home all without mesh bed level
G80 X104.301 Y84.3011 W41.3979 H41.3979 ; mesh bed levelling

G1 Z0.2 F720
G1 Y-3 F1000 ; go outside print area
G92 E0
G1 X60 E9 F1000 ; intro line
G1 X100 E12.5 F1000 ; intro line

G92 E0
M221 S95

; Don't change E values below. Excessive value can damage the printer.
M907 E430 ; set extruder motor current
G21 ; set units to millimeters
G90 ; use absolute coordinates
M83 ; use relative distances for extrusion

M900 K0.04 ; Filament gcode LA 1.5
M900 K20 ; Filament gcode LA 1.0




M107
;LAYER_CHANGE
;Z:0.2
;HEIGHT:0.2
G1 E-.8 F2100
G1 Z.6 F720
G1 X110.132 Y90.868 F10800
G1 Z.2 F720
G1 E.8 F2100
M204 S800
;TYPE:Skirt/Brim
;WIDTH:0.42
G1 F1200
G1 X110.868 Y90.132 E.03264
G1 X116.968 Y86.125 E.22883
G1 X117.896 Y85.75 E.03138
G1 X124.519 Y84.486 E.21141
G1 X125.528 Y84.495 E.03164
G1 X132.104 Y85.75 E.20991
G1 X133.032 Y86.125 E.03138
G1 X139.132 Y90.132 E.22883
G1 X139.868 Y90.868 E.03264
G1 X143.875 Y96.968 E.22883
G1 X144.25 Y97.896 E.03138
G1 X145.514 Y104.519 E.21141
G1 X145.514 Y105.481 E.03016
G1 X144.25 Y112.104 E.21141
G1 X143.875 Y113.032 E.03138
G1 X139.868 Y119.132 E.22883
G1 X139.132 Y119.868 E.03264
G1 X133.032 Y123.875 E.22883
G1 X132.104 Y124.25 E.03138
G1 X125.481 Y125.514 E.21141
G1 X124.519 Y125.514 E.03016
G1 X117.896 Y124.25 E.21141
G1 X116.968 Y123.875 E.03138
G1 X110.868 Y119.868 E.22883
G1 X110.132 Y119.132 E.03264
G1 X106.125 Y113.032 E.22883
G1 X105.75 Y112.104 E.03138
G1 X104.486 Y105.481 E.21141
G1 X104.486 Y104.519 E.03016
G1 X105.75 Y97.896 E.21141
G1 X106.125 Y96.968 E.03138
G1 X110.099 Y90.918 E.22696
M204 S1000
G1 X110.099 Y90.918 F10800
G1 X110.414 Y91.125
M204 S800
G1 F1200
G1 X110.447 Y91.075 E.00188
G1 X111.075 Y90.447 E.02785
G1 X117.175 Y86.441 E.22882
G1 X117.966 Y86.12 E.02677
G1 X124.59 Y84.857 E.21143
G1 X125.457 Y84.866 E.02719
G1 X132.033 Y86.12 E.2099
G1 X132.825 Y86.441 E.02679
G1 X138.925 Y90.447 E.22882
G1 X139.553 Y91.075 E.02785
G1 X143.559 Y97.175 E.22882
G1 X143.88 Y97.967 E.02679
G1 X145.143 Y104.59 E.2114
G1 X145.143 Y105.41 E.02571
G1 X143.88 Y112.033 E.2114
G1 X143.559 Y112.825 E.02679
G1 X139.553 Y118.925 E.22882
G1 X138.925 Y119.553 E.02785
G1 X132.825 Y123.559 E.22882
G1 X132.033 Y123.88 E.02679
G1 X125.41 Y125.143 E.2114
G1 X124.59 Y125.143 E.02571
G1 X117.967 Y123.88 E.2114
G1 X117.175 Y123.559 E.02679
G1 X111.075 Y119.553 E.22882
G1 X110.447 Y118.925 E.02785
G1 X106.441 Y112.825 E.22882
G1 X106.12 Y112.033 E.02679
G1 X104.857 Y105.41 E.2114
G1 X104.857 Y104.59 E.02571
G1 X106.12 Y97.967 E.2114
G1 X106.441 Y97.175 E.02679
G1 X110.382 Y91.175 E.22508
M204 S1000
;WIPE_START
G1 F8640
G1 X110.414 Y91.125 E-.01371
G1 X110.447 Y91.075 E-.01383
G1 X111.075 Y90.447 E-.20507
G1 X113.129 Y89.098 E-.56739
;WIPE_END
G1 Z.6 F720
; printing object cilindre+-subdivisions.stl id:0 copy 0
G1 X136.883 Y93.117 F10800
G1 Z.2 F720
G1 E.8 F2100
M204 S800
;TYPE:Perimeter
;WIDTH:0.419999
G1 F1200
G1 X140.63 Y98.822 E.21401
G1 X141.808 Y105 E.1972
G1 X141.232 Y108.024 E.09652
G1 X140.63 Y111.178 E.10068
G1 X136.883 Y116.883 E.21401
G1 X131.178 Y120.63 E.21401
G1 X125 Y121.808 E.1972
G1 X118.822 Y120.63 E.1972
G1 X113.117 Y116.883 E.21401
G1 X109.37 Y111.178 E.21401
G1 X108.192 Y105 E.1972
G1 X109.37 Y98.822 E.1972
G1 X113.117 Y93.117 E.21401
G1 X118.822 Y89.37 E.21401
G1 X125 Y88.192 E.1972
G1 X131.178 Y89.37 E.1972
G1 X136.833 Y93.084 E.21213
M204 S1000
G1 X136.833 Y93.084 F10800
G1 X137.155 Y92.845
M204 S800
G1 F1200
G1 X140.986 Y98.678 E.21881
G1 X142.192 Y105 E.2018
G1 X141.602 Y108.095 E.09879
G1 X140.986 Y111.322 E.10301
G1 X137.155 Y117.155 E.21881
G1 X131.322 Y120.986 E.21881
G1 X125 Y122.192 E.2018
G1 X118.678 Y120.986 E.2018
G1 X112.845 Y117.155 E.21881
G1 X109.014 Y111.322 E.21881
G1 X107.808 Y105 E.2018
G1 X109.014 Y98.678 E.2018
G1 X112.845 Y92.845 E.21881
G1 X118.678 Y89.014 E.21881
G1 X125 Y87.808 E.2018
G1 X131.322 Y89.014 E.2018
G1 X137.105 Y92.812 E.21693
M73 P0 R104
M204 S1000
G1 X137.105 Y92.812 F10800
G1 X137.427 Y92.573
M204 S800
;TYPE:External perimeter
G1 F1200
G1 X141.343 Y98.534 E.22363
G1 X142.576 Y105 E.20639
G1 X141.972 Y108.165 E.10103
G1 X141.343 Y111.466 E.10536
G1 X137.427 Y117.427 E.22363
G1 X131.466 Y121.343 E.22363
G1 X125 Y122.576 E.20639
G1 X118.534 Y121.343 E.20639
G1 X112.573 Y117.427 E.22363
G1 X108.657 Y111.466 E.22363
G1 X107.424 Y105 E.20639
G1 X108.657 Y98.534 E.20639
G1 X112.573 Y92.573 E.22363
G1 X118.534 Y88.657 E.22363
G1 X125 Y87.424 E.20639
G1 X131.466 Y88.657 E.20639
G1 X137.377 Y92.54 E.22175
M204 S1000
;WIPE_START
G1 F8640
G1 X137.427 Y92.573 E-.01383
G1 X139.296 Y95.418 E-.78617
;WIPE_END
G1 Z.6 F720
G1 X138.245 Y95.5 F10800
G1 Z.2 F720
G1 E.8 F2100
M204 S800
;TYPE:Solid infill
;WIDTH:0.421343
G1 F1200
G1 X135.092 Y92.347 E.14031
G1 X133.532 Y91.322 E.05873
G1 X138.678 Y96.468 E.229
G1 X139.702 Y98.028 E.05872
G1 X131.972 Y90.298 E.34398
G1 X131.048 Y89.691 E.03479
G1 X130.779 Y89.639 E.00862
G1 X140.361 Y99.221 E.4264
G1 X140.487 Y99.883 E.0212
M73 Q0 S104
G1 X130.117 Y89.513 E.46146
G1 X129.456 Y89.387 E.02117
G1 X140.613 Y100.544 E.49648
G1 X140.739 Y101.205 E.02117
G1 X128.795 Y89.261 E.5315
G1 X128.133 Y89.135 E.0212
G1 X140.865 Y101.867 E.56657
G1 X140.991 Y102.528 E.02117
G1 X127.472 Y89.009 E.60159
G1 X126.811 Y88.882 E.02118
G1 X141.118 Y103.189 E.63666
G1 X141.244 Y103.851 E.0212
G1 X126.149 Y88.756 E.67172
G1 X125.488 Y88.63 E.02117
G1 X141.37 Y104.512 E.70674
G1 X141.463 Y105 E.01563
G1 X141.44 Y105.118 E.00378
G1 X124.882 Y88.56 E.73683
G1 X124.433 Y88.645 E.01438
G1 X141.355 Y105.567 E.75302
G1 X141.269 Y106.017 E.01442
G1 X123.983 Y88.731 E.76922
G1 X123.534 Y88.817 E.01439
G1 X141.183 Y106.466 E.78537
G1 X141.098 Y106.916 E.01441
G1 X123.084 Y88.902 E.80162
G1 X122.635 Y88.988 E.01439
G1 X141.012 Y107.365 E.81777
G1 X140.926 Y107.814 E.01439
G1 X122.186 Y89.074 E.83392
G1 X121.736 Y89.16 E.01442
G1 X140.84 Y108.264 E.85012
G1 X140.755 Y108.713 E.01438
G1 X121.287 Y89.245 E.86632
G1 X120.837 Y89.331 E.01442
G1 X140.669 Y109.163 E.88252
G1 X140.583 Y109.612 E.01439
G1 X120.388 Y89.417 E.89867
G1 X119.938 Y89.503 E.01442
G1 X140.497 Y110.062 E.91487
G1 X140.412 Y110.511 E.01438
M73 Q1 S104
G1 X119.489 Y89.588 E.93107
G1 X119.039 Y89.674 E.01442
M73 P1 R104
G1 X140.326 Y110.961 E.94726
G1 X140.309 Y111.048 E.00279
G1 X140.138 Y111.308 E.00979
G1 X118.692 Y89.862 E.95434
G1 X118.369 Y90.074 E.01216
G1 X139.926 Y111.631 E.95928
G1 X139.714 Y111.954 E.01216
G1 X118.046 Y90.286 E.96422
G1 X117.723 Y90.498 E.01216
G1 X139.502 Y112.277 E.96916
G1 X139.29 Y112.6 E.01216
G1 X117.4 Y90.71 E.9741
G1 X117.077 Y90.922 E.01216
G1 X139.078 Y112.923 E.97904
G1 X138.865 Y113.246 E.01217
G1 X116.754 Y91.135 E.98393
G1 X116.431 Y91.347 E.01216
G1 X138.653 Y113.569 E.98887
G1 X138.441 Y113.892 E.01216
G1 X116.108 Y91.559 E.99381
G1 X115.785 Y91.771 E.01216
G1 X138.229 Y114.215 E.99875
G1 X138.017 Y114.538 E.01216
G1 X115.462 Y91.983 E1.00369
G1 X115.139 Y92.195 E.01216
G1 X137.805 Y114.861 E1.00863
G1 X137.592 Y115.184 E.01217
G1 X114.816 Y92.408 E1.01352
G1 X114.493 Y92.62 E.01216
G1 X137.38 Y115.507 E1.01846
G1 X137.168 Y115.83 E.01216
G1 X114.17 Y92.832 E1.0234
G1 X113.847 Y93.044 E.01216
G1 X136.956 Y116.153 E1.02834
G1 X136.744 Y116.476 E.01216
M73 P1 R103
G1 X113.524 Y93.256 E1.03328
G1 X113.362 Y93.362 E.00609
G1 X113.256 Y93.524 E.00609
G1 X136.476 Y116.744 E1.03328
G1 X136.153 Y116.956 E.01216
G1 X113.044 Y93.847 E1.02834
G1 X112.832 Y94.17 E.01216
G1 X135.83 Y117.168 E1.0234
G1 X135.507 Y117.38 E.01216
G1 X112.62 Y94.493 E1.01846
G1 X112.408 Y94.816 E.01216
M73 Q1 S103
G1 X135.184 Y117.592 E1.01352
G1 X134.861 Y117.805 E.01217
G1 X112.195 Y95.139 E1.00863
G1 X111.983 Y95.462 E.01216
G1 X134.538 Y118.017 E1.00369
G1 X134.215 Y118.229 E.01216
G1 X111.771 Y95.785 E.99875
G1 X111.559 Y96.108 E.01216
G1 X133.892 Y118.441 E.99381
G1 X133.569 Y118.653 E.01216
G1 X111.347 Y96.431 E.98887
G1 X111.135 Y96.754 E.01216
G1 X133.246 Y118.865 E.98393
G1 X132.923 Y119.078 E.01217
G1 X110.922 Y97.077 E.97904
G1 X110.71 Y97.4 E.01216
G1 X132.6 Y119.29 E.9741
G1 X132.277 Y119.502 E.01216
G1 X110.498 Y97.723 E.96916
G1 X110.286 Y98.046 E.01216
G1 X131.954 Y119.714 E.96422
G1 X131.631 Y119.926 E.01216
G1 X110.074 Y98.369 E.95928
G1 X109.862 Y98.692 E.01216
G1 X131.308 Y120.138 E.95434
G1 X131.048 Y120.309 E.00979
G1 X130.96 Y120.326 E.00282
G1 X109.674 Y99.04 E.94722
G1 X109.588 Y99.489 E.01439
G1 X130.511 Y120.412 E.93107
G1 X130.062 Y120.497 E.01438
G1 X109.503 Y99.938 E.91487
G1 X109.417 Y100.388 E.01442
G1 X129.612 Y120.583 E.89867
G1 X129.163 Y120.669 E.01439
M73 P2 R103
M73 Q2 S103
G1 X109.331 Y100.837 E.88252
G1 X109.245 Y101.287 E.01442
G1 X128.713 Y120.755 E.86632
G1 X128.264 Y120.84 E.01438
G1 X109.16 Y101.736 E.85012
G1 X109.074 Y102.186 E.01442
G1 X127.814 Y120.926 E.83392
G1 X127.365 Y121.012 E.01439
G1 X108.988 Y102.635 E.81777
G1 X108.902 Y103.085 E.01442
G1 X126.915 Y121.098 E.80157
G1 X126.466 Y121.183 E.01438
G1 X108.817 Y103.534 E.78537
G1 X108.731 Y103.983 E.01439
G1 X126.017 Y121.269 E.76922
G1 X125.567 Y121.355 E.01442
G1 X108.645 Y104.433 E.75302
G1 X108.56 Y104.882 E.01438
G1 X125.118 Y121.44 E.73683
G1 X125 Y121.463 E.00378
G1 X124.512 Y121.37 E.01563
G1 X108.63 Y105.488 E.70674
G1 X108.756 Y106.149 E.02117
G1 X123.851 Y121.244 E.67172
G1 X123.189 Y121.118 E.0212
G1 X108.882 Y106.811 E.63666
G1 X109.009 Y107.472 E.02118
G1 X122.528 Y120.991 E.60159
G1 X121.867 Y120.865 E.02117
G1 X109.135 Y108.133 E.56657
G1 X109.261 Y108.795 E.0212
G1 X121.205 Y120.739 E.5315
G1 X120.544 Y120.613 E.02117
G1 X109.387 Y109.456 E.49648
G1 X109.513 Y110.117 E.02117
G1 X119.883 Y120.487 E.46146
G1 X119.221 Y120.361 E.0212
G1 X109.639 Y110.779 E.4264
G1 X109.691 Y111.048 E.00862
G1 X110.298 Y111.972 E.03479
G1 X118.028 Y119.702 E.34398
G1 X116.468 Y118.678 E.05872
G1 X111.322 Y113.532 E.229
G1 X112.347 Y115.092 E.05873
G1 X115.5 Y118.245 E.14031
M204 S1000
;LAYER_CHANGE
;Z:0.4
;HEIGHT:0.2
;BEFORE_LAYER_CHANGE
G92 E0.0
;0.4


;WIPE_START
G1 F8640
G1 X113.05 Y115.795 E-.8
;WIPE_END
G1 Z.4 F720
;AFTER_LAYER_CHANGE
;0.4
M140 S110 ; set bed temperature
; stop printing object cilindre+-subdivisions.stl id:0 copy 0
G1 Z.8
G1 X113.359 Y121.504 F10800
G1 Z.4 F720
G1 E.8 F2100
;TYPE:Skirt/Brim
;WIDTH:0.42
G1 F2400
G1 X110.868 Y119.868 E.09344
G1 X110.132 Y119.132 E.03264
G1 X106.125 Y113.032 E.22883
G1 X105.75 Y112.104 E.03138
M73 P2 R102
G1 X104.486 Y105.481 E.21141
G1 X104.486 Y104.519 E.03016
G1 X105.75 Y97.896 E.21141
G1 X106.125 Y96.968 E.03138
G1 X110.132 Y90.868 E.22883
G1 X110.868 Y90.132 E.03264
G1 X116.968 Y86.125 E.22883
G1 X117.896 Y85.75 E.03138
G1 X124.519 Y84.486 E.21141
G1 X125.528 Y84.495 E.03164
G1 X132.104 Y85.75 E.20991
G1 X133.032 Y86.125 E.03138
G1 X139.132 Y90.132 E.22883
G1 X139.868 Y90.868 E.03264
G1 X143.875 Y96.968 E.22883
G1 X144.25 Y97.896 E.03138
G1 X145.514 Y104.519 E.21141
G1 X145.514 Y105.481 E.03016
G1 X144.25 Y112.104 E.21141
G1 X143.875 Y113.032 E.03138
G1 X139.868 Y119.132 E.22883
G1 X139.132 Y119.868 E.03264
G1 X133.032 Y123.875 E.22883
G1 X132.104 Y124.25 E.03138
G1 X125.481 Y125.514 E.21141
G1 X124.519 Y125.514 E.03016
G1 X117.896 Y124.25 E.21141
G1 X116.968 Y123.875 E.03138
G1 X113.409 Y121.537 E.13351
G1 X113.409 Y121.537 F10800
G1 X113.616 Y121.222
G1 F2400
G1 X111.075 Y119.553 E.09532
G1 X110.447 Y118.925 E.02785
G1 X106.441 Y112.825 E.22882
G1 X106.12 Y112.033 E.02679
G1 X104.857 Y105.41 E.2114
G1 X104.857 Y104.59 E.02571
G1 X106.12 Y97.967 E.2114
G1 X106.441 Y97.175 E.02679
G1 X110.447 Y91.075 E.22882
G1 X111.075 Y90.447 E.02785
G1 X117.175 Y86.441 E.22882
G1 X117.966 Y86.12 E.02677
G1 X124.59 Y84.857 E.21143
G1 X125.457 Y84.866 E.02719
G1 X132.033 Y86.12 E.2099
G1 X132.825 Y86.441 E.02679
G1 X138.925 Y90.447 E.22882
G1 X139.553 Y91.075 E.02785
G1 X143.559 Y97.175 E.22882
G1 X143.88 Y97.967 E.02679
G1 X145.143 Y104.59 E.2114
G1 X145.143 Y105.41 E.02571
G1 X143.88 Y112.033 E.2114
G1 X143.559 Y112.825 E.02679
G1 X139.553 Y118.925 E.22882
G1 X138.925 Y119.553 E.02785
G1 X132.825 Y123.559 E.22882
G1 X132.033 Y123.88 E.02679
G1 X125.41 Y125.143 E.2114
G1 X124.59 Y125.143 E.02571
G1 X117.967 Y123.88 E.2114
G1 X117.175 Y123.559 E.02679
G1 X113.666 Y121.255 E.13162
;WIPE_START
G1 F8640
G1 X113.616 Y121.222 E-.01383
G1 X111.075 Y119.553 E-.70197
G1 X110.817 Y119.295 E-.0842
;WIPE_END
G1 Z.8 F720
; printing object cilindre+-subdivisions.stl id:0 copy 0
G1 X136.973 Y93.027 F10800
G1 Z.4 F720
G1 E.8 F2100
M204 S300
;TYPE:Perimeter
;WIDTH:0.449999
G1 F1796.092
G1 X140.748 Y98.774 E.23274
G1 F1793.795
G1 X141.936 Y105 E.21454
G1 F1758.487
G1 X140.748 Y111.226 E.21454
G1 F1796.977
G1 X136.973 Y116.973 E.23274
G1 X131.226 Y120.748 E.23274
G1 F1793.795
G1 X125 Y121.936 E.21454
G1 X118.774 Y120.748 E.21454
M73 Q2 S102
G1 F1796.112
G1 X113.027 Y116.973 E.23274
G1 F1797.418
G1 X109.252 Y111.226 E.23274
G1 F1793.795
G1 X108.064 Y105 E.21454
G1 F1795.271
G1 X109.252 Y98.774 E.21454
G1 F1798.032
G1 X113.027 Y93.027 E.23274
G1 X118.774 Y89.252 E.23274
G1 F1796.562
G1 X125 Y88.064 E.21454
G1 F1795.271
G1 X131.226 Y89.252 E.21454
G1 F1797.414
G1 X136.923 Y92.994 E.23071
M204 S1000
G1 X136.923 Y92.994 F10800
G1 X137.267 Y92.733
M204 S300
G1 F1795.491
G1 X141.133 Y98.619 E.23837
G1 F1792.987
G1 X142.35 Y105 E.21988
G1 F1748.811
G1 X141.133 Y111.381 E.21988
G1 F1796.536
G1 X137.267 Y117.267 E.23837
G1 X131.381 Y121.133 E.23837
G1 F1792.987
G1 X125 Y122.35 E.21988
G1 X118.619 Y121.133 E.21988
G1 F1795.544
G1 X112.733 Y117.267 E.23837
G1 F1796.977
G1 X108.867 Y111.381 E.23837
G1 F1792.987
G1 X107.65 Y105 E.21988
G1 F1794.656
G1 X108.867 Y98.619 E.21988
G1 F1797.696
G1 X112.733 Y92.733 E.23837
G1 X118.619 Y88.867 E.23837
G1 F1796.064
G1 X125 Y87.65 E.21988
G1 F1794.656
G1 X131.381 Y88.867 E.21988
G1 F1796.947
G1 X137.217 Y92.7 E.23634
M204 S1000
G1 X137.217 Y92.7 F10800
G1 X137.561 Y92.439
M204 S300
;TYPE:External perimeter
G1 F1200
G1 X137.931 Y93.003 E.02283
G1 X141.147 Y97.899 E.19828
G1 X141.518 Y98.463 E.02285
G1 X141.644 Y99.126 E.02284
G1 X142.638 Y104.337 E.17957
G1 X142.764 Y105 E.02284
G1 X142.638 Y105.663 E.02284
G1 X141.518 Y111.537 E.20241
G1 X141.147 Y112.101 E.02285
G1 X137.931 Y116.997 E.19828
G1 X137.561 Y117.561 E.02283
G1 X136.997 Y117.931 E.02283
G1 X132.101 Y121.147 E.19828
G1 X131.537 Y121.518 E.02285
G1 X130.874 Y121.644 E.02284
G1 X125.663 Y122.638 E.17957
G1 X125 Y122.764 E.02284
G1 X124.337 Y122.638 E.02284
G1 X119.126 Y121.644 E.17957
G1 X118.463 Y121.518 E.02284
G1 X117.899 Y121.147 E.02285
G1 X113.003 Y117.931 E.19828
G1 X112.439 Y117.561 E.02283
G1 X112.069 Y116.997 E.02283
G1 X108.853 Y112.101 E.19828
G1 X108.482 Y111.537 E.02285
G1 X108.356 Y110.874 E.02284
G1 X107.362 Y105.663 E.17957
G1 X107.236 Y105 E.02284
G1 X107.362 Y104.337 E.02284
G1 X108.356 Y99.126 E.17957
G1 X108.482 Y98.463 E.02284
G1 X108.853 Y97.899 E.02285
G1 X112.069 Y93.003 E.19828
G1 X112.439 Y92.439 E.02283
G1 X113.003 Y92.069 E.02283
G1 X117.899 Y88.853 E.19828
G1 X118.463 Y88.482 E.02285
